account-tie-outline.svg

<svg fill="currentColor" viewBox="0 0 24 24"><path d="M16.36 12.76C18.31 13.42 20 14.5 20 16v5H4v-5c0-1.5 1.69-2.58 3.65-3.24L8.27 14l.23.5c-1.5.46-2.6 1.12-2.6 1.5v3.1h4.22l.88-5.07-.94-1.88c.62-.07 1.27-.12 1.94-.12s1.32.05 1.94.12L13 14.03l.88 5.07h4.22V16c0-.38-1.1-1.04-2.6-1.5l.23-.5zM12 5c-1.1 0-2 .9-2 2s.9 2 2 2 2-.9 2-2-.9-2-2-2m0 6c-2.21 0-4-1.79-4-4s1.79-4 4-4 4 1.79 4 4-1.79 4-4 4"/></svg>

<svg  viewBox="0 0 24 24" fill="currentColor"><path  d="M16.36 12.76C18.31 13.42 20 14.5 20 16V21H4V16C4 14.5 5.69 13.42 7.65 12.76L8.27 14L8.5 14.5C7 14.96 5.9 15.62 5.9 16V19.1H10.12L11 14.03L10.06 12.15C10.68 12.08 11.33 12.03 12 12.03C12.67 12.03 13.32 12.08 13.94 12.15L13 14.03L13.88 19.1H18.1V16C18.1 15.62 17 14.96 15.5 14.5L15.73 14L16.36 12.76M12 5C10.9 5 10 5.9 10 7C10 8.1 10.9 9 12 9C13.1 9 14 8.1 14 7C14 5.9 13.1 5 12 5M12 11C9.79 11 8 9.21 8 7C8 4.79 9.79 3 12 3C14.21 3 16 4.79 16 7C16 9.21 14.21 11 12 11Z"/></svg>
